X:88
T:La F\'ee des dents
C:Andr\'e Brunet
M:6/8
L:1/8
K:G
B2D- DGA | Bdc BAG | BcE- EFG | FAG FED | 
B3 DGA | Bdc Bgf | egd- dcB | AGF G3 ::
e3- edB | ced cBc | dGB- BAG | Bdc BAG |
e2c efg | afd- dcB | ced cBA | AGF G3 :|

